static/icons/research_paper.svg

<svg width="18" height="20" viewBox="0 0 18 20" fill="none" xmlns="http://www.w3.org/2000/svg">
<path d="M10.6556 17.4785C7.84216 17.4785 5.55029 15.1866 5.55029 12.3732C5.55029 9.55981 7.84216 7.27273 10.6556 7.27273C13.469 7.27273 15.7608 9.56459 15.7608 12.378C15.7608 15.1914 13.469 17.4785 10.6556 17.4785ZM10.6556 8.80383C8.68426 8.80383 7.08139 10.4067 7.08139 12.378C7.08139 14.3493 8.68426 15.9522 10.6556 15.9522C12.6268 15.9522 14.2297 14.3493 14.2297 12.378C14.2297 10.4067 12.6221 8.80383 10.6556 8.80383Z" fill="white"/>
<path d="M17.0335 19.5215C16.8373 19.5215 16.6411 19.445 16.4928 19.2966L13.177 15.9809C12.8756 15.6794 12.8756 15.1962 13.177 14.8995C13.4784 14.5981 13.9617 14.5981 14.2583 14.8995L17.5741 18.2153C17.8756 18.5167 17.8756 19 17.5741 19.2966C17.4258 19.445 17.2296 19.5215 17.0335 19.5215Z" fill="white"/>
<path d="M10.7464 20H2.80383C1.25837 20 0 18.7416 0 17.1914V2.80861C0 1.25837 1.25837 0 2.80861 0H14.5455C16.0957 0 17.3541 1.25837 17.3541 2.80861V9.03828C17.3541 9.45933 17.0096 9.80383 16.5885 9.80383C16.1675 9.80383 15.823 9.45933 15.823 9.03828V2.80861C15.823 2.10526 15.2488 1.5311 14.5455 1.5311H2.80861C2.10526 1.5311 1.5311 2.10526 1.5311 2.80861V17.1962C1.5311 17.8947 2.10526 18.4689 2.80861 18.4689H10.7512C11.1722 18.4689 11.5167 18.8134 11.5167 19.2344C11.512 19.6555 11.1722 20 10.7464 20Z" fill="white"/>
<path d="M13.5264 4.62678H3.82781C3.40675 4.62678 3.06226 4.28228 3.06226 3.86123C3.06226 3.44018 3.40675 3.09568 3.82781 3.09568H13.5264C13.9474 3.09568 14.2919 3.44018 14.2919 3.86123C14.2919 4.28228 13.9474 4.62678 13.5264 4.62678Z" fill="white"/>
<path d="M7.0479 7.08134H3.82781C3.40675 7.08134 3.06226 6.73684 3.06226 6.31579C3.06226 5.89474 3.40675 5.55024 3.82781 5.55024H7.0479C7.46895 5.55024 7.81345 5.89474 7.81345 6.31579C7.81345 6.73684 7.47374 7.08134 7.0479 7.08134Z" fill="white"/>
</svg>

<svg xmlns="http://www.w3.org/2000/svg" width="18" height="20" fill="#fff" xmlns:v="https://vecta.io/nano"><path d="M10.656 17.479c-2.813 0-5.105-2.292-5.105-5.105a5.11 5.11 0 0 1 5.105-5.1c2.813 0 5.105 2.292 5.105 5.105a5.11 5.11 0 0 1-5.105 5.101zm0-8.675a3.58 3.58 0 0 0-3.574 3.574 3.58 3.58 0 0 0 3.574 3.574 3.58 3.58 0 0 0 3.574-3.574 3.58 3.58 0 0 0-3.574-3.574z"/><path d="M17.034 19.522c-.196 0-.392-.076-.541-.225l-3.316-3.316a.764.764 0 1 1 1.081-1.081l3.316 3.316a.76.76 0 0 1 0 1.081c-.148.148-.344.225-.541.225zM10.746 20H2.804A2.81 2.81 0 0 1 0 17.191V2.809A2.81 2.81 0 0 1 2.809 0h11.737a2.81 2.81 0 0 1 2.809 2.809v6.23a.77.77 0 0 1-.766.766.77.77 0 0 1-.765-.766v-6.23a1.28 1.28 0 0 0-1.277-1.278H2.809a1.28 1.28 0 0 0-1.278 1.278v14.388a1.28 1.28 0 0 0 1.278 1.273h7.943a.77.77 0 0 1 .765.765.77.77 0 0 1-.77.766zm2.78-15.373H3.828a.77.77 0 0 1-.766-.766.77.77 0 0 1 .766-.766h9.699a.77.77 0 0 1 .765.766.77.77 0 0 1-.765.766zM7.048 7.081h-3.22a.77.77 0 0 1-.766-.766.77.77 0 0 1 .766-.766h3.22a.77.77 0 0 1 .766.766c0 .421-.34.766-.766.766z"/></svg>
